X:1
T:O Welt, Sieh Hier, 77.67.78
T:Heinrich Friese, 1703
T:O Welt, Sieh Hier, 77.67.78
T:Public Domain
C:Heinrich Friese, 1703
Z:Public Domain
%%score ( 1 2 ) ( 3 4 )
L:1/8
M:4/4
K:C
V:1 treble 
V:2 treble 
V:3 bass 
V:4 bass 
V:1
 [DA]4 | [DF]2 D2 [EG]2 [DF]2 | (D2 ^CB,) [CE]2 [CE]2 | [DF]2 [DF]2 [EG]2 [DG]2 | (D2 ^CB,) [CA]4 | %5
 z2 [EA]2 [EB]2 [Ec]2 | [FB]2 [EB]2 [^CA]4 | z4 [FA]4 | [EG]2 [DF]2 [^CE]2 [DF]2 | %9
 (D2 B,2) [CG]2 [CE]2 | [CF]2 [DF]2 [EG]2 [DG]2 | (D2 ^CB,) [CA]4 | z2 [DA]2 [F_B]2 [FA]2 | %13
 [DG]2 [DF]2 [DE]2 [^CE]2 | [A,D]4 |] %15
V:2
 x4 | x2 D2 x4 | E4 x4 | x8 | A4 x4 | x8 | x8 | x8 | x8 | G4 x4 | x8 | A4 x4 | x8 | x8 | x4 |] %15
V:3
 [D,F,]4 | [D,A,]2 [_B,,G,]2 [G,,_B,]2 [D,A,]2 | [A,,A,]4 [A,,A,]2 [A,,A,]2 | %3
 [D,A,]2 [D,A,]2 [C,C]2 [_B,,G,]2 | (F,2 E,D,) [A,,E,]4 | z2 [A,C]2 [^G,B,]2 A,2 | %6
 [D,A,]2 [E,^G,]2 [A,,A,]4 | z4 [F,C]4 | [C,C]2 [D,A,]2 [A,,A,]2 [D,A,]2 | %9
 (D,2 G,,2) [C,E,]2 [C,G,]2 | [A,,A,]2 [D,A,]2 [C,C]2 [_B,,G,]2 | (F,2 E,D,) [A,,E,]4 | %12
 z2 [D,F,]2 [_B,,D]2 [F,,C]2 | [G,,_B,]2 [D,A,]2 [A,,A,]2 [A,,A,]2 | [D,^F,]4 |] %15
V:4
 x4 | x8 | x8 | x8 | A,,4 x4 | x6 A,2 | x8 | x8 | x8 | G,4 x4 | x8 | A,,4 x4 | x8 | x8 | x4 |] %15

